assets/images/icon_map_marker.svg

<svg height="130" viewBox="0 0 130 130" width="130" xmlns="http://www.w3.org/2000/svg"><circle cx="65" cy="65" fill="#fff" r="65"/><circle cx="65.5" cy="65.5" fill="#073764" r="58.5"/><path d="m86.754 58.361v3.168h9.846v12.344h-9.844v12.959h-12.284v-.256l-11.567-17.8v18.138h-12.281v-40.835h12.282v.115l11.566 17.806v-18h12.282v.016h18.246v12.345zm-51.754-12.192h12.282v40.831h-12.282z" fill="#fff" fill-rule="evenodd"/></svg>

<?xml version="1.0" encoding="UTF-8" standalone="no"?>
<svg
   xmlns:dc="http://purl.org/dc/elements/1.1/"
   xmlns:cc="http://creativecommons.org/ns#"
   xmlns:rdf="http://www.w3.org/1999/02/22-rdf-syntax-ns#"
   xmlns:svg="http://www.w3.org/2000/svg"
   xmlns="http://www.w3.org/2000/svg"
   xmlns:sodipodi="http://sodipodi.sourceforge.net/DTD/sodipodi-0.dtd"
   xmlns:inkscape="http://www.inkscape.org/namespaces/inkscape"
   height="130"
   viewBox="0 0 130 130"
   width="130"
   version="1.1"
   id="svg8"
   sodipodi:docname="icon_map_marker.svg"
   inkscape:version="0.92.3 (2405546, 2018-03-11)">
  <metadata
     id="metadata14">
    <rdf:RDF>
      <cc:Work
         rdf:about="">
        <dc:format>image/svg+xml</dc:format>
        <dc:type
           rdf:resource="http://purl.org/dc/dcmitype/StillImage" />
        <dc:title></dc:title>
      </cc:Work>
    </rdf:RDF>
  </metadata>
  <defs
     id="defs12" />
  <sodipodi:namedview
     pagecolor="#ffffff"
     bordercolor="#666666"
     borderopacity="1"
     objecttolerance="10"
     gridtolerance="10"
     guidetolerance="10"
     inkscape:pageopacity="0"
     inkscape:pageshadow="2"
     inkscape:window-width="746"
     inkscape:window-height="600"
     id="namedview10"
     showgrid="false"
     fit-margin-top="0"
     fit-margin-left="0"
     fit-margin-right="0"
     fit-margin-bottom="0"
     inkscape:zoom="2.017094"
     inkscape:cx="40.463983"
     inkscape:cy="64.5"
     inkscape:window-x="2080"
     inkscape:window-y="185"
     inkscape:window-maximized="0"
     inkscape:current-layer="svg8" />
  <circle
     cx="65"
     cy="65"
     r="65"
     id="circle2"
     style="fill:#ffffff" />
  <circle
     cx="65.5"
     cy="65.5"
     r="58.5"
     id="circle4"
     style="fill:#073764" />
  <path
     d="m 86.754,58.361 v 3.168 H 96.6 V 73.873 H 86.756 V 86.832 H 74.472 V 86.576 L 62.905,68.776 V 86.914 H 50.624 V 46.079 h 12.282 v 0.115 L 74.472,64 V 46 h 12.282 v 0.016 H 105 V 58.361 Z M 35,46.169 H 47.282 V 87 H 35 Z"
     id="path6"
     inkscape:connector-curvature="0"
     style="fill:#ffffff;fill-rule:evenodd" />
</svg>
